recipes/pushbullet/icon.svg

<svg height="1024" preserveAspectRatio="xMidYMid" viewBox="0 0 256 256" width="1024" xmlns="http://www.w3.org/2000/svg" xmlns:xlink="http://www.w3.org/1999/xlink"><defs><path id="a" d="m256 128c0 70.692-57.308 128-128 128s-128-57.308-128-128 57.308-128 128-128 128 57.308 128 128"/><linearGradient id="b" x1="8.59%" x2="77.471%" y1="1.954%" y2="73.896%"><stop offset="0" stop-color="#4cb36b"/><stop offset="1" stop-color="#3ea16f"/></linearGradient><mask id="c" fill="#fff"><use fill="#fff" xlink:href="#a"/></mask></defs><use fill="#67bf79" xlink:href="#a"/><path d="m256 128c0 70.692-57.308 128-128 128s-128-57.308-128-128 57.308-128 128-128 128 57.308 128 128" fill="#67bf79" mask="url(#c)"/><path d="m63.111 187.022 33.067-115.022 64.533 60.978 39.289-42.845 87.533 86.289-110.844 124.889z" fill="url(#b)" mask="url(#c)"/><g fill="#fff"><path d="m77 189.6c-16.733 0-16.733 0-16.733-16.733v-91.867c0-16.733 0-16.733 16.733-16.733h3.334c16.7329992 0 16.7329992 0 16.733 16.733v91.867c-.0000008 16.733-.0000008 16.733-16.733 16.733z" mask="url(#c)"/><path d="m121.041 189.6c-5.699 0-8.508-2.809-8.508-8.508v-108.318c0-5.698 2.809-8.507 8.508-8.507h37.537c32.178 0 52.628 32.273 52.628 63.025s-20.628 62.308-52.628 62.308z" mask="url(#c)"/></g></svg>

<?xml version="1.0" encoding="UTF-8" standalone="no"?>
<svg width="1024px" height="1024px" viewBox="0 0 256 256" version="1.1" xmlns="http://www.w3.org/2000/svg" xmlns:xlink="http://www.w3.org/1999/xlink" preserveAspectRatio="xMidYMid">
    <defs>
        <path id="path-1" d="M256,128 C256,198.692 198.692,256 128,256 C57.308,256 0,198.692 0,128 C0,57.308 57.308,0 128,0 C198.692,0 256,57.308 256,128"></path>
        <linearGradient x1="8.59001137%" y1="1.95448636%" x2="77.4705802%" y2="73.8962145%" id="linearGradient-3">
            <stop stop-color="#4CB36B" offset="0%"></stop>
            <stop stop-color="#3EA16F" offset="100%"></stop>
        </linearGradient>
    </defs>
	<g>
		<mask id="mask-2" fill="white">
			<use xlink:href="#path-1"></use>
		</mask>
		<use fill="#67BF79" xlink:href="#path-1"></use>
		<path d="M256,128 C256,198.692 198.692,256 128,256 C57.308,256 0,198.692 0,128 C0,57.308 57.308,0 128,0 C198.692,0 256,57.308 256,128" fill="#67BF79" mask="url(#mask-2)"></path>
		<path d="M63.111,187.022 L96.178,72 L160.711,132.978 L200,90.133 L287.533,176.422 L176.689,301.311 L63.111,187.022" fill="url(#linearGradient-3)" mask="url(#mask-2)"></path>
		<path d="M77,189.6 C60.267,189.6 60.267,189.6 60.267,172.867 L60.267,81 C60.267,64.267 60.267,64.267 77,64.267 L80.334,64.267 C97.0669992,64.267 97.0669992,64.267 97.067,81 L97.067,172.867 C97.0669992,189.6 97.0669992,189.6 80.334,189.6 L77,189.6 Z" fill="#FFFFFF" mask="url(#mask-2)"></path>
		<path d="M121.041,189.6 C115.342,189.6 112.533,186.791 112.533,181.092 L112.533,72.774 C112.533,67.076 115.342,64.267 121.041,64.267 L158.578,64.267 C190.756,64.267 211.206,96.54 211.206,127.292 C211.206,158.044 190.578,189.6 158.578,189.6 L121.041,189.6 Z" fill="#FFFFFF" mask="url(#mask-2)"></path>
	</g>
</svg>
